X:1
T: Humours of Glen
C: J-29
M: 6/8
Z:
R: jig
% %staffwidth 12.5cm
K: Bm
F| "Bm"Bd/c/B/^A/ BFF| de/d/c/B/ dFF| Bd/c/B/^A/ BFd| "F#"EF^A "Bm"B2F|
   "Bm"Bd/c/B/^A/ dFF| de/d/c/B/ dFF| "G"GA/G/F/E/ "D"FG/F/E/D/| "F#"EF^A "Bm"B2:|
|:\
d| "D"A/B/dd d3| d/c/d/e/f/g/ afd| "G"ga/g/f/e/ "D"fdA| AFA "G"B2d|
   "D"A/B/dd d3| d/c/d/e/f/g/ afd| "G"ba/g/f/e/ "D"fe/d/c/B/| "F#"AF^A "G  (Bm)"B2:|
%
